X:522
T:Rucenitsa 3
O:Bulgaria
S:Loose photocopied sheet
Z:Nigel Gatherer
M:7/8
L:1/8
K:Am
A2 ^cd e2 e | e2 ^cd e2 d |ef d2 d3 | d2 d2 d2 d | 
d2 ^fg g2 =f | g^g=gf ^f2 d | e2 d^c _BAG | A2 eA ^cde |
f2 ^ga a2 =g | g2 ge ^f2 d | ^fgge f2 d |  e2 d^c _BAG 
AB^cd d3 | e2 ed fed | e2 d^c _BAG | A2 AE AEA :|]
